X: 27178
T: Miss Monaghan
R: reel
M: 4/4
K: Dmajor
D2 (3FED FAAF|G2 BG FGAc|(3dcB (3cBA Bcde|fd (3ddd gfed|
D2 (3FED FAAF|GFED CDEF|dcdf edcB|AGFE DA,B,C|
D2 (3FED FAAF|G2 BG FGAc|(3dcB (3cBA Bcde|fd (3ddd gfed|
DAFA DAFA|G ~B3 G ~B3|(3dcB (3cBA BcdB|AGFE FD D2|
~a3 b afdf|(3gag (3fgf edBc|(3dcB (3cBA Bcde|fdgf [Be] [Be]3|
~a3 b afdf|gafg edBc|(3dcB (3cBA BcdB|(3AGF (3GFE FD D2|
~a3 b afdf|{/a} gfgf edBc|(3dcB (3cBA Bcde|(3ffd gf [Be]2 [Be]g|
fg (3agf gbag|fagf edBc|(3ddc df edcB|AGFE DA,B,C|
D2 (3FED FAA=c|BG{/B}GF GABc|(3dcB (3cBA Bcde|fd (3ddd gfed|
D2 (3FED FAAF|G ~B3 G ~B3|(3dcB (3cBA BcdB|(3ABA (3GFE (3DED CE|
D2 (3FED FAAF|GABG FGAc|dcBA ^GABd|fd (3ddd efdB|
DF{/G}FE FGA=c|BG{/A}GF GABc|~d3 A BcdB|(3AGF (3GFE FD D2|
~a3 b afdf|gafg edBc|(3dcB (3cBA Bcde|f ~d3 e ~g3|
f ~a3{/b} afdf|(3gag (3fgf edBc|(3dcB (3cBA BcdB|(3AGF (3GFE FD D2|
a^g (3aab afdf|{/a} gfgf edBc|(3dcB (3cBA ^GABd|fdgf [Be] [Be]2 g|
fg (3aaf gbag|fagf edBc|defg edcB|AGFE (3DED ^CE|
D2 (3FED FAAF|GFED CDEF|dcBA ^GABd|[df]2 gf ecdB|
D2 (3FED FAAF|G2 BG FGAc|(3dcB (3cBA BcdB|(3ABA (3GFE (3DED CE|D8||

